X:0540
M:6/8
L:1/8
Q:3/8=92 "Moderato"
K:D
f/g/|afd d'2b|c'2a b2g|afd afd |cee e2
f/g/|afd d'2b|c'2a b2g|afg afb |fge d2::

